templates/main/source/images/round.svg

<?xml version="1.0" encoding="utf-8"?>
<svg width="13px" height="11px" viewBox="0 0 13 11" version="1.1" xmlns:xlink="http://www.w3.org/1999/xlink" xmlns="http://www.w3.org/2000/svg">
  <desc>Created with Lunacy</desc>
  <path d="M9.70743 0.294538L11.7074 2.29454L11.7084 2.29454C12.0989 2.68528 12.0987 3.31857 11.7079 3.70904C11.3172 4.0995 10.6839 4.09928 10.2934 3.70854L10.0004 3.41554L10.0004 9.00154C10.0004 9.55382 9.55272 10.0015 9.00043 10.0015C8.44815 10.0015 8.00043 9.55382 8.00043 9.00154L8.00043 3.41554L7.70643 3.70854C7.31405 4.08751 6.69035 4.08209 6.30461 3.69636C5.91888 3.31062 5.91346 2.68692 6.29243 2.29454L8.29243 0.294538C8.4796 0.106021 8.73427 0 8.99993 0C9.26559 0 9.52026 0.106021 9.70743 0.294538ZM2.99923 0.000488281C3.55151 0.000488281 3.99923 0.448204 3.99923 1.00049L4.00023 6.58749L4.29223 6.29449C4.68297 5.90375 5.31648 5.90375 5.70723 6.29449C6.09797 6.68523 6.09797 7.31875 5.70723 7.70949L3.70723 9.70849C3.52035 9.89719 3.2658 10.0034 3.00023 10.0034C2.73465 10.0034 2.4801 9.89719 2.29323 9.70849L0.293225 7.70949C0.04046 7.4569 -0.0583514 7.08865 0.0340124 6.74346C0.126376 6.39826 0.395883 6.12857 0.741012 6.03596C1.08614 5.94335 1.45446 6.0419 1.70723 6.29449L1.99923 6.58749L1.99923 1.00049C1.99923 0.448204 2.44694 0.000488281 2.99923 0.000488281Z" id="sorting-arrows" fill="#A6A6A6" fill-rule="evenodd" stroke="none" />
</svg>

<svg width="13" height="11" viewBox="0 0 13 11" xmlns:xlink="http://www.w3.org/1999/xlink" xmlns="http://www.w3.org/2000/svg"><path d="M9.707.295l2 2h.001a1 1 0 11-1.415 1.414L10 3.416v5.586a1 1 0 11-2 0V3.416l-.294.293a1 1 0 01-1.414-1.414l2-2a.997.997 0 011.415 0zM3 0a1 1 0 011 1v5.587l.292-.293A1 1 0 015.707 7.71l-2 2a.995.995 0 01-1.414 0l-2-2a1 1 0 011.414-1.415L2 6.587V1a1 1 0 011-1z" id="sorting-arrows" fill="#A6A6A6" fill-rule="evenodd" stroke="none"/></svg>
